X: 1
T: Ned Of The Hill
R: waltz
M: 3/4
L: 1/8
K: Gmaj
(D>E) | G2B2 (AG) |B2g2 (f>d) | (ed/B/) A2B2 | "tr"(G>F) F2 (D>E) | G2B2 (A>G) |
B2g2 (f>d) | (ed/B/) "tr"A2B2 | (A>B/2A/4) G2 || (De/f/) | g2 (fe) (a>g) |
f2 (ed/B/) .d(g/f/) | e>d (B/A/G/E/) (G/A/B/d/) | (e>f) (g>a) (g/a/b) | G2B2(AG) |
B2g2(fd) | (e/d/B/G/) .A2 (G/A/B/d/) | (e/d/B/G/) (A>G) G ||


Tune 6508	Setting 28945

